X:1
T:정주나요
T:정주나요
T:글리 정말 10조! (테너 Pt)
L:1/8
Q:3/8=66
M:6/8
K:F
V:1 treble-8 nm="Classical Guitar" snm="Guit."
V:1
 ccc c z z | ccc c z z | ddd d z z | B6 | ccc c z z | ccc c z z | ddd d z z | B6 | z3 c2 A | %9
w: 슈 비 루 밥|슈 비 루 밥|슈 비 루 밥|워|슈 비 루 밥|슈 비 루 밥|슈 비 루 밥|워|눈 부|
 G/F/- F2- F3 | z3 z2 F/F/ | E2 D- DCC- | C (c2 (c3) | c6) | z3 z dB | A2 G- G2 F | (f6 | f6) | %18
w: 시 게 * *|아 름|다 우 운 그 대-|* 여 *||이 맘|알 아- * 주|오-||
 (f6 | f6) | z3 FGA | F3 z3 | z3 BAG/F/ | E2 z4 | z3 z G2 | (F/G/ F2- F3) || %26
w: ||애 달 프|게|그 댈 부 르|는|이|바 암 * *|
[K:Ab][M:4/4][Q:1/4=138] z8 | c2 cc BAAF | A2 A2 B2 AB | c2 cc ecBA | A2 c2 B2 z2 | c2 f2 e2 c2 | %32
w: |첫 눈 에 반 해 버 린|그 대 여 나 를|첫 눈 에 사 로 잡 은|그 대 여|내 마 음 을|
 B2 A2 B2 c2 | A8 | z FFF (3A2 B2 c2 | c4 c4- | c4 z4 || c2 c2 c c2 c- | c c2 d e2 d2 | %39
w: 알 아 준 다|면|후 회 하 진 않 을|거 야||정 주 나 요 안-|* 정 주 나 요|
 c2 c2 c c2 c- | c f2 e d2 z2 | c2 c2 c c2 c- | c c2 d e2 d2 | d8- | d4 e2 e2 ||[K:F] z8 | z8 | %47
w: 늘 정 주 는 날-|* 알 아 줘|정 주 나 요 안-|* 정 주 나 요|아|* 후 후|||
 z8 | z8 | z8 | z8 | z8 | z8 | z8 | z8 | z8 | z8 | z8 | z8 | z8 | z8 ||[K:Ab] c3 e dc z d | %62
w: ||||||||||||||오 my ba be *|
 e2 ee dc z2 | e2 ee eBBB | .A2 A2 B4 | A3 A B _c2 c | A2 AA B _c2 c | z8 | g2 f2 e2 d2 | %69
w: 해 치 지 않 아|겁 내 지 말 고 내 게|다 가 와|이 래 뵈 도 나|귀 여 운 남 자 야||예 예 예 예|
 c2 cc BAAF | A2 A2 B2 AB | c2 cc ecBA | A2 c2 B2 z2 | e2 c2 c2 B2 | A2 c2 B2 B2 | A8 | %76
w: 한 떨 기 장 미 같 은|그 대 여 내 게|한 뿌 리 산 삼 같 은|그 대 여|내 마 음 을|받 아 준 다|면|
 z FFF (3A2 B2 c2 | c4 c4- | c4 z4 ||[K:F] z8 | z8 | z8 | z8 | z8 | z8 | z8 | z8 | c3 _e _dc z d | %88
w: 후 회 하 진 않 을|거 야||||||||||오 my ba be 널|
 _e2 ee _dc z2 | _e2 ee eBBB | ._A2 A2 B4 | _A3 A B _c2 c | _A2 AA B _c2 c | z8 | g2 f2 _e2 _d2 | %95
w: 놓 치 지 않 아|널 위 해 목 숨 바 칠|한 남 자|이 래 뵈 도 나|뜨 거 운 남 자 야||요 용 용 용|
 c2 cc B_AAF | _A2 A2 B2 AB | c2 cc _ecB_A | _A2 c2 B2 z2 | _e2 c2 c2 B2 | _A2 c2 B2 B2 | _A8 | %102
w: 한 여 름 빙 수 같 은|그 대 여 내 게|한 겨 울 호 빵 같 은|그 대 여|내 마 음 을|받 아 준 다|면|
 z FFF (3_A2 B2 c2 | c4 c4- | c4 z4 | c2 c2 c c2 c- | c c2 _d _e2 d2 | c2 c2 c c2 c- | %108
w: 후 회 하 진 않 을|거 야||정 주 나 요 안-|* 정 주 나 요|늘 정 주 는 날-|
 c f2 _e _d2 z2 | c2 c2 c c2 c- | c c2 _d _e2 d2 | _d8- | d4 z2 z2 ||[K:Bb] d2 d2 d d2 d- | %114
w: * 알 아 줘|정 주 나 요 안-|* 정 주 나 요|아-||정 주 나 요 안-|
 d d2 e f2 e2 | d2 d2 d d2 d- | d g2 f e2 z2 | d2 d2 d d2 d- | d d2 e f2 e2 | e8- | e4 f2 fg- | %121
w: * 정 주 나 요|늘 정 주 는 날-|* 알 아 줘|정 주 나 요 안-|* 정 주 나 요|아|* 알 아 줘-|
[K:C] g8- | g6 (ed) | (d(c c4)) z c- | c c2 c c2 z2 | c2 c2 c c2 c- | c c2 d e2 d2 | c8- | %128
w: |* 예- *|예- * * 날-|* 알 아 줘|정 주 나 요 안-|* 정 주 나 요|아|
 c4 z2 z2 ||[K:D] d2 d2 d d2 d- | d d2 e f2 e2 | d2 d2 d d2 d- | d g2 f e2 z2 | d2 d2 d d2 d- | %134
w: |정 주 나 요 안-|* 정 주 나 요|늘 정 주 는 날-|* 알 아 줘|정 주 나 요 안-|
 d d2 e f2 e2 | d8 | d4 d4 | f8- | f8- | f8 | z8 |] %141
w: * 정 주 나 요|날|알 아|줘||||

